X:66
T:Humours of Glendart
Z: id:dc-jig-55
M:6/8
L:1/8
K:D Major
A|BAF ADD|FEF DFA|BAF ADD|FEE EFA|!
BAF ADD|FEF DFA|dcB AFE|FDD D2:|!
A|def d2B|ABA AFA|def d2f|ede fdB|!
def edB|AFA ABc|dcB AFE|FDD D2:|!

